X: 764
T: Air Tune, The
R: reel
M: 4/4
K: Dmajor
d3 B S|:Affe f2 ed|f/g/a de f2 ed|Beed fded|BA A/A/A BAFG|
Affe f2 ed|f/g/a de f2 ed|dBBe dB B/c/d|1 FEED DAFG:|2 FEED D2 fg||
|:a2 ga fgef|edcd FADA|Beed fded|BA A/A/A BAFA|a2 ga fgef|
edcd FADA|GBBA B/c/d BA|1 Affe defg:|2 FEED DAFG||["Last time" FEED HD4||

